X: 5369
T: Bucks Of Dublin, The
R: slide
M: 12/8
K: Gmajor
|:D|GBd dBG GBd efg|dBG ABc BGE AFD|
GBd dBG GBd efg|dBG ABG E2 F G2:|
|:D|GBd g2 b afd dBG|GBd gfg afd e2 f|
gfg aga bge ege|dBG ABG E2 F G2:|

